X:226
T:Earl of Eglinton's Birthday
R:Strathspey
B:The Athole Collection
M:C
L:1/8
K:F
A|F>F A2 G>G B2|A>c d/c/B/A/ B<G G>A|F>F A2 G>G ~B2|
f>c d/e/d/B/ A<FF:|
A|f>gf>d e>g ~g2|a>a b/a/g/f/ e<g g>a|~f>g f<c (3def (3efg|
f>c c/d/c/B/ A<F F>c|~f>gf>d e>g ~g2|a>a b/a/g/f/ e<g g<c|
(3def (3efg (3fga (3gfe|~f>c d/e/d/B/ A<FF||

